X:277
T:Father Kelly's
R:jig
S:Kevin Finucane
Z:id:hn-jig-277
M:6/8
K:D
faf dfd|ABA FDF|~G3 EGF|Eed cBA|
f/2g/2af dfd|ABA FDF|~G3 Ecd|1 edc d2e:|2 edc d2A||
|:ABA FED|FGF FED|CEC A,CE|EAB cBA|
F2A AFD|GEE EDC|CEC A,CE|1 GEC D2A:|2 GEC D3||
|:F2A dcd|ede fdB|gfe ~d3|Bcd edB|
AFA dcd|ede gfe|dcB Ace|1 cAc d3:|2 cAc d2e||

